packages/katcn/src/icons/svg/read.svg

<svg width="24" height="24" viewBox="0 0 24 24" fill="none" xmlns="http://www.w3.org/2000/svg">
<path fill-rule="evenodd" clip-rule="evenodd" d="M4.83496 10.5983C5.11205 10.1206 5.72397 9.9579 6.20171 10.235L11.2017 13.135C11.2112 13.1405 11.2207 13.1462 11.23 13.152C11.7057 13.4494 12.3943 13.4494 12.87 13.152C12.8793 13.1462 12.8888 13.1405 12.8983 13.135L17.8983 10.235C18.376 9.9579 18.9879 10.1206 19.265 10.5983C19.5421 11.076 19.3795 11.688 18.9017 11.965L13.9147 14.8575C12.7972 15.5475 11.3028 15.5475 10.1853 14.8575L5.19828 11.965C4.72053 11.688 4.55787 11.076 4.83496 10.5983Z" fill="black"/>
<path fill-rule="evenodd" clip-rule="evenodd" d="M11.1732 3.18171L4.73927 6.94309C3.67687 7.6903 3 8.79618 3 10.1V18.4C3 19.8477 4.15228 21 5.6 21H18.4C19.8477 21 21 19.8477 21 18.4V10.1C21 8.79618 20.3231 7.6903 19.2607 6.94308L12.8268 3.18171C12.3208 2.93943 11.6792 2.93943 11.1732 3.18171ZM10.2528 1.40557C11.3343 0.864809 12.6657 0.864809 13.7472 1.40557C13.7667 1.41532 13.7859 1.4257 13.8047 1.4367L20.3047 5.2367C20.3267 5.24958 20.3482 5.26329 20.3692 5.27781C21.8896 6.33039 23 8.01603 23 10.1V18.4C23 20.9523 20.9523 23 18.4 23H5.6C3.04771 23 1 20.9523 1 18.4V10.1C1 8.01603 2.1104 6.33039 3.63079 5.27781C3.65176 5.26329 3.67328 5.24958 3.6953 5.2367L10.1953 1.4367C10.2141 1.4257 10.2333 1.41532 10.2528 1.40557Z" fill="black"/>
</svg>

<svg xmlns="http://www.w3.org/2000/svg" fill="none" viewBox="0 0 24 24"><path fill="#000" fill-rule="evenodd" d="M4.835 10.598a1 1 0 0 1 1.367-.363l5 2.9.028.017a1.62 1.62 0 0 0 1.668-.017l5-2.9a1 1 0 0 1 1.004 1.73l-4.987 2.893a3.62 3.62 0 0 1-3.73 0l-4.987-2.893a1 1 0 0 1-.363-1.367" clip-rule="evenodd"/><path fill="#000" fill-rule="evenodd" d="M11.173 3.182 4.74 6.943C3.677 7.69 3 8.796 3 10.1v8.3C3 19.848 4.152 21 5.6 21h12.8c1.448 0 2.6-1.152 2.6-2.6v-8.3c0-1.304-.677-2.41-1.74-3.157l-6.433-3.761a1.97 1.97 0 0 0-1.654 0m-.92-1.776a3.97 3.97 0 0 1 3.552.03l6.5 3.8q.033.02.064.042C21.89 6.33 23 8.016 23 10.1v8.3c0 2.552-2.048 4.6-4.6 4.6H5.6A4.585 4.585 0 0 1 1 18.4v-8.3c0-2.084 1.11-3.77 2.63-4.822l.065-.041 6.5-3.8z" clip-rule="evenodd"/></svg>
